Obsidian-SemiLight/actions/24s/draw-line.svg

<svg viewBox="0 0 24 24" xmlns="http://www.w3.org/2000/svg"><path d="m17 4v2.3125l-10.6875 10.6875h-2.3125v3h3v-2.3125l10.6875-10.6875h2.3125v-3zm1 1h1v1h-1zm-13 13h1v1h-1z" fill="#4d4d4d"/></svg>

<svg xmlns="http://www.w3.org/2000/svg" viewBox="0 0 24 24">
  <defs id="defs3051">
    <style type="text/css" id="current-color-scheme">
      .ColorScheme-Text {
        color:#4d4d4d;
      }
      </style>
  </defs>
 <path style="fill:currentColor;fill-opacity:1;stroke:none" 
     d="M 17 4 L 17 6.3125 L 6.3125 17 L 4 17 L 4 20 L 7 20 L 7 17.6875 L 17.6875 7 L 20 7 L 20 4 L 17 4 z M 18 5 L 19 5 L 19 6 L 18 6 L 18 5 z M 5 18 L 6 18 L 6 19 L 5 19 L 5 18 z "
     class="ColorScheme-Text"
     />
</svg>
